polaris-icons/icons/newicons/FolderUpMajor.svg

<svg width="20" height="20" viewBox="0 0 20 20" fill="none" xmlns="http://www.w3.org/2000/svg">
<path d="M3.5 6.75C3.5 6.05964 4.05964 5.5 4.75 5.5H6.76393C7.2374 5.5 7.67023 5.7675 7.88197 6.19098L8.05279 6.53262C8.34922 7.1255 8.95518 7.5 9.61803 7.5H15.25C15.9404 7.5 16.5 8.05964 16.5 8.75C16.5 9.16421 16.8358 9.5 17.25 9.5C17.6642 9.5 18 9.16421 18 8.75C18 7.23122 16.7688 6 15.25 6H9.61803C9.52334 6 9.43678 5.9465 9.39443 5.8618L9.22361 5.52016C8.75778 4.58851 7.80556 4 6.76393 4H4.75C3.23122 4 2 5.23122 2 6.75V13.25C2 14.7688 3.23122 16 4.75 16H10.75C11.1642 16 11.5 15.6642 11.5 15.25C11.5 14.8358 11.1642 14.5 10.75 14.5H4.75C4.05964 14.5 3.5 13.9404 3.5 13.25V6.75Z" fill="black"/>
<path d="M16.75 16.25C16.75 16.6642 16.4142 17 16 17C15.5858 17 15.25 16.6642 15.25 16.25V13.4201L14.2483 14.3106C13.9387 14.5857 13.4646 14.5579 13.1895 14.2483C12.9143 13.9387 12.9421 13.4646 13.2517 13.1894L15.5017 11.1894C15.7859 10.9369 16.2141 10.9369 16.4983 11.1894L18.7483 13.1894C19.0579 13.4646 19.0858 13.9387 18.8106 14.2483C18.5354 14.5579 18.0613 14.5857 17.7517 14.3106L16.75 13.4201V16.25Z" fill="black"/>
</svg>

<svg viewBox="0 0 20 20" fill="none" xmlns="http://www.w3.org/2000/svg"><path d="M3.5 6.75c0-.69.56-1.25 1.25-1.25h2.014c.473 0 .906.268 1.118.691l.17.342a1.75 1.75 0 0 0 1.566.967h5.632c.69 0 1.25.56 1.25 1.25a.75.75 0 0 0 1.5 0 2.75 2.75 0 0 0-2.75-2.75h-5.632a.25.25 0 0 1-.224-.138l-.17-.342a2.75 2.75 0 0 0-2.46-1.52h-2.014a2.75 2.75 0 0 0-2.75 2.75v6.5a2.75 2.75 0 0 0 2.75 2.75h6a.75.75 0 0 0 0-1.5h-6c-.69 0-1.25-.56-1.25-1.25v-6.5Z" fill="#000"/><path d="M16.75 16.25a.75.75 0 0 1-1.5 0v-2.83l-1.002.89a.75.75 0 0 1-.996-1.12l2.25-2a.75.75 0 0 1 .996 0l2.25 2a.75.75 0 0 1-.996 1.12l-1.002-.89v2.83Z" fill="#000"/></svg>
